polaris-icons/icons/newicons/HomeMajor.svg

<svg width="20" height="20" viewBox="0 0 20 20" fill="none" xmlns="http://www.w3.org/2000/svg">
<path fill-rule="evenodd" clip-rule="evenodd" d="M8.40901 3.53035C9.28769 2.65167 10.7123 2.65167 11.591 3.53035L15.9017 7.84101C16.6049 8.54427 17 9.4981 17 10.4927V14.25C17 15.7688 15.7688 17 14.25 17H12.5C11.6716 17 11 16.3284 11 15.5V13H9V15.5C9 16.3284 8.32843 17 7.5 17H5.75C4.23122 17 3 15.7688 3 14.25V10.4927C3 9.4981 3.39509 8.54427 4.09835 7.84101L8.40901 3.53035ZM10.5303 4.59101C10.2374 4.29811 9.76256 4.29811 9.46967 4.59101L5.15901 8.90167C4.73705 9.32362 4.5 9.89592 4.5 10.4927V14.25C4.5 14.9404 5.05964 15.5 5.75 15.5H7.5V13C7.5 12.1716 8.17157 11.5 9 11.5H11C11.8284 11.5 12.5 12.1716 12.5 13V15.5H14.25C14.9404 15.5 15.5 14.9404 15.5 14.25V10.4927C15.5 9.89592 15.2629 9.32363 14.841 8.90167L10.5303 4.59101Z" fill="black"/>
</svg>

<svg viewBox="0 0 20 20" fill="none" xmlns="http://www.w3.org/2000/svg"><path fill-rule="evenodd" clip-rule="evenodd" d="M8.409 3.53a2.25 2.25 0 0 1 3.182 0l4.31 4.311a3.75 3.75 0 0 1 1.099 2.652v3.757a2.75 2.75 0 0 1-2.75 2.75h-1.75a1.5 1.5 0 0 1-1.5-1.5v-2.5h-2v2.5a1.5 1.5 0 0 1-1.5 1.5h-1.75a2.75 2.75 0 0 1-2.75-2.75v-3.757a3.75 3.75 0 0 1 1.098-2.652l4.311-4.31Zm2.121 1.061a.75.75 0 0 0-1.06 0l-4.311 4.31a2.25 2.25 0 0 0-.659 1.592v3.757c0 .69.56 1.25 1.25 1.25h1.75v-2.5a1.5 1.5 0 0 1 1.5-1.5h2a1.5 1.5 0 0 1 1.5 1.5v2.5h1.75c.69 0 1.25-.56 1.25-1.25v-3.757a2.25 2.25 0 0 0-.659-1.591l-4.31-4.311Z" fill="#5C5F62"/></svg>
